public/chat 1.svg

<svg fill="none" height="37" viewBox="0 0 37 37" width="37" xmlns="http://www.w3.org/2000/svg" xmlns:xlink="http://www.w3.org/1999/xlink"><clipPath id="a"><path d="m0 0h37v37h-37z" transform="matrix(0 -1 1 0 .000002 37)"/></clipPath><g clip-path="url(#a)"><path d="m15.8932 18.8279v-.0168m0-6.0293v-.0168m0 12.1091v-.0168" stroke="#161616" stroke-linecap="round" stroke-linejoin="round" stroke-width="3.6"/><path d="m15.6493 36.403c.7821-.1598-.185-.471-4.4988-1.7828-.74-.2354-1.5557-.5045-2.22843-.7904-.68114-.2859-1.2025-.6055-1.44636-.7989-.25227-.185-.62227-.4877-.91659-.8661-.30273-.3784-.56341-.8325-.69796-1.2025-.26909-.7484-.20182-1.3034-.15977-1.1184.05886.1766.11773-.0505.19341-.5298.07568-.5046.11773-1.7071.11773-3.103-.01682-1.6229.1009-2.3041.25227-2.3125.21023 0 .20182-.1009-.03364-.8241-.10932-.3447-.185-.8745-.25227-2.1947-.02523-.6559-.0925-1.5053-.07568-2.6321.01682-1.1184.04204-2.5143.06727-4.2466.02523-1.9677.10932-3.5318.20182-4.5661.10091-1.06795.26909-1.59773.40363-1.93409.29432-.63069.53819-.93341.84932-1.34546.54659-.63909 1.58091-.925 3.32155-1.00909 1.9257-.0925 2.6153-.15136 3.2628-.42886.7063-.2775 1.152-.37841 3.145-.25227 1.9845.10931 2.2704.1009 2.0434-.11773-.1177-.10932-.0757-.16818.4373-.16818.5045.01682 1.4968.01681 3.1534.24386 2.5311.34477 3.1954 1.60614 3.4309 1.63136.1766.05046.6475.58864.8829 1.32023.2187.73159.328 1.2025.4037 1.03432.0504-.15977.2018.20182.2606.81568.0673.60546.143 1.24453.2019 1.39593.0168.0504.0925.8325.1513 2.1443.0253.6559.0589 1.438.1009 2.3293.0169.4457.0337.9166.0505 1.4127.0252.4878.0336 1.0007.2018 1.438.2943.6895 1.0091 1.3707 1.623 2.1107.3447.3952.6895.7988 1.0511 1.2109.37.4289.7736.8745 1.0932 1.3202.2438.3616.555.6475.6223 1.068.0672.412-.0757.8493-.3616 1.1268-.1346.1429-.3028.2439-.4709.3027-.1598.0673-.3364.0673-.5635.0841-.4204.0336-.8156.0589-1.1856.0841-1.0175.0084-1.7491 0-2.035.0252-.0169.4457-.0337.8746-.0505 1.2866-.0252.4373-.042.8493-.0673 1.2446-.0672.8829-.1513 1.6986-.3531 2.447-.1935.7484-.5382 1.4211-.9671 1.9425-.4204.5214-.8998.925-1.4127 1.2193-1.0343.5803-2.035.74-2.96.8662-.9334.1177-1.8416.1766-2.8507.2522-3.658.2103-4.4568.3616-3.002.5887.4204.0588 1.152.1177 3.6327.0925.6223-.0168 1.3623-.0253 2.2788-.0925.8998-.0925 2.0855-.1766 3.4478-.9166.6727-.3784 1.2697-.8914 1.7995-1.5725.5382-.6812.925-1.5725 1.1268-2.4218.2103-.8578.3028-1.7071.3784-2.5732.0337-.3784.0589-.7821.0925-1.2109.1262 0 .3953.0168.6812.0252h.1598.084.0169l.1177-.0168.2439-.0421c.6559-.1177 1.3454-.2354 2.0854-.37.4121-.1261.7232-.412 1.0259-.8409.2775-.4288.4289-1.0091.37-1.5136-.0757-.4625-.2102-.9082-.5634-1.5473-.1682-.3111-.4541-.6307-.7316-.9586-.2775-.328-.5718-.6727-.8661-1.0259-.4121-.4878-.8493-1.0091-1.3202-1.5725-.3953-.4625-.8578-1.0343-.8494-1.1521-.0504-.0672-.0672-.8997-.0588-1.7407 0-.8577-.0168-1.7743-.0168-2.7413 0-.9671-.0253-1.9593-.0757-3.06093-.0757-1.10159-.1093-2.32091-.6812-3.78409-.2859-.71477-.7484-1.43796-1.2866-2.00977-.5213-.57182-1.2109-1.09318-1.9593-1.44637-1.5136-.69795-2.8759-.79045-4.0784-.90818-1.2193-.10091-2.3377-.15977-3.5066-.20182-1.1604-.04204-2.3041-.10932-3.4225-.10091-.5802 0-1.2782 0-2.0686 0-.7905.00841-1.6482.02523-2.6741.07569-1.02591.08409-2.22.10091-3.75887.69795-1.55568.63909-2.94318 1.84159-3.72522 3.55705-.74841 1.69863-.79887 3.17023-.90818 4.49888-.0925 1.3454-.13455 2.6404-.16819 4.0027-.03363 1.3539-.06727 2.7246-.10091 4.0868-.01681 1.3707.03364 2.733.05046 4.0868.03364 1.3539.02523 2.691.10091 3.986.07568 1.3118.0925 2.632.48773 4.2213.20181.7905.555 1.6566 1.08477 2.405.52977.7568 1.11841 1.3202 1.82477 1.8164.71477.4877 1.49682.8157 2.17796 1.0007.68954.1934 1.295.2775 1.85.3447 2.16117.2019 3.61587.185 4.80997.2019 1.1521 0 1.85 0 1.9593-.0253z" fill="#161616"/></g></svg>

<svg width="37" height="37" viewBox="0 0 37 37" fill="none" xmlns="http://www.w3.org/2000/svg">
<g clip-path="url(#clip0_2127_2865)">
<path d="M15.8932 18.8279L15.8932 18.8111M15.8932 12.7818L15.8932 12.765M15.8932 24.8741L15.8932 24.8573" stroke="#161616" stroke-width="3.6" stroke-linecap="round" stroke-linejoin="round"/>
<path d="M15.6493 36.403C16.4314 36.2432 15.4643 35.932 11.1505 34.6202C10.4105 34.3848 9.5948 34.1157 8.92207 33.8298C8.24093 33.5439 7.71957 33.2243 7.47571 33.0309C7.22344 32.8459 6.85344 32.5432 6.55912 32.1648C6.25639 31.7864 5.99571 31.3323 5.86116 30.9623C5.59207 30.2139 5.65934 29.6589 5.70139 29.8439C5.76025 30.0205 5.81912 29.7934 5.8948 29.3141C5.97048 28.8095 6.01253 27.607 6.01253 26.2111C5.99571 24.5882 6.11343 23.907 6.2648 23.8986C6.47503 23.8986 6.46662 23.7977 6.23116 23.0745C6.12184 22.7298 6.04616 22.2 5.97889 20.8798C5.95366 20.2239 5.88639 19.3745 5.90321 18.2477C5.92003 17.1293 5.94525 15.7334 5.97048 14.0011C5.99571 12.0334 6.0798 10.4693 6.1723 9.435C6.27321 8.36705 6.44139 7.83727 6.57593 7.50091C6.87025 6.87022 7.11412 6.5675 7.42525 6.15545C7.97184 5.51636 9.00616 5.23045 10.7468 5.14636C12.6725 5.05386 13.3621 4.995 14.0096 4.7175C14.7159 4.44 15.1616 4.33909 17.1546 4.46523C19.1391 4.57454 19.425 4.56613 19.198 4.3475C19.0803 4.23818 19.1223 4.17932 19.6353 4.17932C20.1398 4.19614 21.1321 4.19613 22.7887 4.42318C25.3198 4.76795 25.9841 6.02932 26.2196 6.05454C26.3962 6.105 26.8671 6.64318 27.1025 7.37477C27.3212 8.10636 27.4305 8.57727 27.5062 8.40909C27.5566 8.24932 27.708 8.61091 27.7668 9.22477C27.8341 9.83023 27.9098 10.4693 27.9687 10.6207C27.9855 10.6711 28.0612 11.4532 28.12 12.765C28.1453 13.4209 28.1789 14.203 28.2209 15.0943C28.2378 15.54 28.2546 16.0109 28.2714 16.507C28.2966 16.9948 28.305 17.5077 28.4732 17.945C28.7675 18.6345 29.4823 19.3157 30.0962 20.0557C30.4409 20.4509 30.7857 20.8545 31.1473 21.2666C31.5173 21.6955 31.9209 22.1411 32.2405 22.5868C32.4843 22.9484 32.7955 23.2343 32.8628 23.6548C32.93 24.0668 32.7871 24.5041 32.5012 24.7816C32.3666 24.9245 32.1984 25.0255 32.0303 25.0843C31.8705 25.1516 31.6939 25.1516 31.4668 25.1684C31.0464 25.202 30.6512 25.2273 30.2812 25.2525C29.2637 25.2609 28.5321 25.2525 28.2462 25.2777C28.2293 25.7234 28.2125 26.1523 28.1957 26.5643C28.1705 27.0016 28.1537 27.4136 28.1284 27.8089C28.0612 28.6918 27.9771 29.5075 27.7753 30.2559C27.5818 31.0043 27.2371 31.677 26.8082 32.1984C26.3878 32.7198 25.9084 33.1234 25.3955 33.4177C24.3612 33.998 23.3605 34.1577 22.4355 34.2839C21.5021 34.4016 20.5939 34.4605 19.5848 34.5361C15.9268 34.7464 15.128 34.8977 16.5828 35.1248C17.0032 35.1836 17.7348 35.2425 20.2155 35.2173C20.8378 35.2005 21.5778 35.192 22.4943 35.1248C23.3941 35.0323 24.5798 34.9482 25.9421 34.2082C26.6148 33.8298 27.2118 33.3168 27.7416 32.6357C28.2798 31.9545 28.6666 31.0632 28.8684 30.2139C29.0787 29.3561 29.1712 28.5068 29.2468 27.6407C29.2805 27.2623 29.3057 26.8586 29.3393 26.4298C29.4655 26.4298 29.7346 26.4466 30.0205 26.455L30.1803 26.455L30.2643 26.455L30.2812 26.455L30.3989 26.4382L30.6428 26.3961C31.2987 26.2784 31.9882 26.1607 32.7282 26.0261C33.1403 25.9 33.4514 25.6141 33.7541 25.1852C34.0316 24.7564 34.183 24.1761 34.1241 23.6716C34.0484 23.2091 33.9139 22.7634 33.5607 22.1243C33.3925 21.8132 33.1066 21.4936 32.8291 21.1657C32.5516 20.8377 32.2573 20.493 31.963 20.1398C31.5509 19.652 31.1137 19.1307 30.6428 18.5673C30.2475 18.1048 29.785 17.533 29.7934 17.4152C29.743 17.348 29.7262 16.5155 29.7346 15.6745C29.7346 14.8168 29.7178 13.9002 29.7178 12.9332C29.7178 11.9661 29.6925 10.9739 29.6421 9.87227C29.5664 8.77068 29.5328 7.55136 28.9609 6.08818C28.675 5.37341 28.2125 4.65022 27.6743 4.07841C27.153 3.50659 26.4634 2.98523 25.715 2.63204C24.2014 1.93409 22.8391 1.84159 21.6366 1.72386C20.4173 1.62295 19.2989 1.56409 18.13 1.52204C16.9696 1.48 15.8259 1.41272 14.7075 1.42113C14.1273 1.42113 13.4293 1.42113 12.6389 1.42113C11.8484 1.42954 10.9907 1.44636 9.9648 1.49682C8.93889 1.58091 7.7448 1.59773 6.20593 2.19477C4.65025 2.83386 3.26275 4.03636 2.48071 5.75182C1.7323 7.45045 1.68184 8.92205 1.57253 10.2507C1.48003 11.5961 1.43798 12.8911 1.40434 14.2534C1.37071 15.6073 1.33707 16.978 1.30343 18.3402C1.28662 19.7109 1.33707 21.0732 1.35389 22.427C1.38753 23.7809 1.37912 25.118 1.4548 26.413C1.53048 27.7248 1.5473 29.045 1.94253 30.6343C2.14434 31.4248 2.49753 32.2909 3.0273 33.0393C3.55707 33.7961 4.14571 34.3595 4.85207 34.8557C5.56684 35.3434 6.34889 35.6714 7.03003 35.8564C7.71957 36.0498 8.32503 36.1339 8.88003 36.2011C11.0412 36.403 12.4959 36.3861 13.69 36.403C14.8421 36.403 15.54 36.403 15.6493 36.3777L15.6493 36.403Z" fill="#161616"/>
</g>
<defs>
<clipPath id="clip0_2127_2865">
<rect width="37" height="37" fill="white" transform="translate(1.61732e-06 37) rotate(-90)"/>
</clipPath>
</defs>
</svg>
